X: 1
C: Howard Shore
M: 4/4
L: 1/8
R: Hornpipe
K: Gmaj
G>A |: B2 d2 BA G>A | G4 z B2 d |\
 e3 g f3 d | B3 c/2B/2A3 G/2A/2 |\
B2 d2 B<A G>A | 
G4 z B2 d | \
e4 d2 B2 | B3 c/2B/2 A3 G/2A/2 | \
G2 B4 A2 | G6 z2 |